svg/fluentui-system-icons/ic_fluent_people_swap_16_filled.svg

<svg width="16" height="16" viewBox="0 0 16 16" fill="none" xmlns="http://www.w3.org/2000/svg">
<path d="M5.5 8C6.88071 8 8 6.88071 8 5.5C8 4.11929 6.88071 3 5.5 3C4.11929 3 3 4.11929 3 5.5C3 6.88071 4.11929 8 5.5 8ZM13.5 6C13.5 7.10457 12.6046 8 11.5 8C10.3954 8 9.5 7.10457 9.5 6C9.5 4.89543 10.3954 4 11.5 4C12.6046 4 13.5 4.89543 13.5 6ZM7.87868 9L6.43934 10.4393C5.85355 11.0251 5.85355 11.9749 6.43934 12.5607L7.16722 13.2885C6.70787 13.4208 6.15807 13.5 5.5 13.5C1.5 13.5 1.5 10.575 1.5 10.575V10.5C1.5 9.67157 2.17157 9 3 9H7.87868ZM9.85355 9.85355C10.0488 9.65829 10.0488 9.34171 9.85355 9.14645C9.65829 8.95118 9.34171 8.95118 9.14645 9.14645L7.14645 11.1464C6.95118 11.3417 6.95118 11.6583 7.14645 11.8536L9.14645 13.8536C9.34171 14.0488 9.65829 14.0488 9.85355 13.8536C10.0488 13.6583 10.0488 13.3417 9.85355 13.1464L8.70711 12H13.2929L12.1464 13.1464C11.9512 13.3417 11.9512 13.6583 12.1464 13.8536C12.3417 14.0488 12.6583 14.0488 12.8536 13.8536L14.8536 11.8536C15.0488 11.6583 15.0488 11.3417 14.8536 11.1464L12.8536 9.14645C12.6583 8.95118 12.3417 8.95118 12.1464 9.14645C11.9512 9.34171 11.9512 9.65829 12.1464 9.85355L13.2929 11H8.70711L9.85355 9.85355Z" fill="#212121"/>
</svg>

<svg xmlns="http://www.w3.org/2000/svg" width="16" height="16"><path d="M5.5 8a2.5 2.5 0 1 0 0-5 2.5 2.5 0 0 0 0 5Zm8-2a2 2 0 1 1-4 0 2 2 0 0 1 4 0ZM7.879 9l-1.44 1.44a1.5 1.5 0 0 0 0 2.12l.728.729A6.03 6.03 0 0 1 5.5 13.5c-4 0-4-2.925-4-2.925V10.5A1.5 1.5 0 0 1 3 9h4.879Zm1.975.854a.5.5 0 0 0-.708-.708l-2 2a.5.5 0 0 0 0 .708l2 2a.5.5 0 0 0 .708-.708L8.707 12h4.586l-1.147 1.146a.5.5 0 0 0 .708.708l2-2a.5.5 0 0 0 0-.708l-2-2a.5.5 0 0 0-.708.708L13.293 11H8.707l1.147-1.146Z"/></svg>
